X:1
T:Title
%%score { ( 1 3 ) | ( 2 4 ) }
L:1/8
Q:1/4=100
M:4/4
K:A
V:1 treble nm="Grand Piano"
V:3 treble 
V:2 bass 
V:4 bass 
V:1
 [Ec]2 [Ec]2 [EB]2 [EA]2 | [DA]3 [DG] [DG]4 | [Dd]2 [Dd]2 [Ec]2 [EB]2 | [EB]3 [EA] [EA]4 | %4
w: Caryl~Florio * * *||||
 [Ee]2 [Ec]2 [EA]2 [CG]2 | [^DG]2 [DF]2 E4 | B2 B2 [Fd]2 [Fc]2 | [FB]2 [^Ec]2 A4 | c2 c2 e2 [Fd]2 | %9
w: |||||
 z4 [DB]4[K:bass] | d3 d [Ec]2 E2 | F4 B4 | [CA]8 |] %13
w: ||||
V:2
 [A,,A,]2 [A,,A,]2 [B,,G,]2 [C,A,]2 | [B,,B,]3 [B,,E,] [B,,E,]4 | %2
 [B,,F,]2 [B,,F,]2 [E,G,]2 [D,G,]2 | [D,G,]3 [C,A,] [C,A,]4 | [C,A,]2 [C,A,]2 [C,A,]2 [A,,A,]2 | %5
 [B,,A,]2 [B,,A,]2 [E,G,]4 | [E,G,E]2 [E,G,E]2 [B,,B,]2 [C,A,]2 | [D,F,]2 [C,G,]2 [F,F]4 | %8
 [F,^A,F]2 [F,A,F]2 [^A,,CF]2 [B,,B,]2 | [=G,B,]2 [F,^A,]2 B,4 | %10
 [G,,B,E]3 [G,,B,E] [A,,A,]2 [C,A,]2 | [D,A,D]4 [E,G,D]4 | [A,,A,]8 |] %13
V:3
 x8 | x8 | x8 | x8 | x8 | x8 | x8 | x8 | x8 | [Ec]2 [Fd]2 z2[K:bass] A,,2 | x8 | x8 | x8 |] %13
V:4
 x8 | x8 | x8 | x8 | x8 | x8 | x8 | x8 | x8 | z4 B,,2 z2 | x8 | x8 | x8 |] %13

